X:420
T: Bray Shore
S: Darley & McCall Collection (#50, gan ainm)
Z: B.Black
L: 1/8
M: 4/4
R: reel
K: C
cA|GEcA GEEF|GEcA G4|GEcA GAcd|edcA d2 cA|
GEcA GEEF|GEcA G4|GEcA GAcd|edcA d2||
cA|cdef ggge|aaaf ggge|cdef ggge|agec d2 cA|
cdef (3ggg ge|(3aaa af (3ggg ge|cdef (3ggg ge|\
agec d2||
